X: 39874
T: This Is My Love, Do You Like Her?
R: jig
M: 6/8
K: Eminor
M:12/8
|:A3 A^GA c3 cBc|d3 d^cd g3 g2 e|
def g2 e dBA G2 A|1 B2 e dBG A2 B c2 B:|2 B2 e dBG A3 ABd||
|:e2 a a^ga e2 =g gfg|e2 a a2 f g2 b a2 g|
ede g2 e dBA G2 A|1 B2 e dBG A3 ABd:|2 B2 e dBG A2 B c2 B||

